img/heart-empty.svg

<svg fill="none" height="16" viewBox="0 0 16 16" width="16" xmlns="http://www.w3.org/2000/svg"><path d="m8.06683 12.3667-.06667.0666-.07333-.0666c-3.16667-2.87337-5.26-4.77337-5.26-6.70003 0-1.33334 1-2.33334 2.33333-2.33334 1.02667 0 2.02667.66667 2.38 1.57334h1.24c.35334-.90667 1.35334-1.57334 2.38004-1.57334 1.3333 0 2.3333 1 2.3333 2.33334 0 1.92666-2.0933 3.82666-5.26667 6.70003zm2.93337-10.3667c-1.16004 0-2.27337.54-3.00004 1.38667-.72666-.84667-1.84-1.38667-3-1.38667-2.05333 0-3.66666 1.60667-3.66666 3.66667 0 2.51333 2.26666 4.57333 5.7 7.68663l.96666.88.96667-.88c3.43337-3.1133 5.69997-5.1733 5.69997-7.68663 0-2.06-1.6133-3.66667-3.6666-3.66667z" fill="#247aae"/></svg>

<svg width="16" height="16" viewBox="0 0 16 16" fill="none" xmlns="http://www.w3.org/2000/svg">
<path d="M8.06683 12.3667L8.00016 12.4333L7.92683 12.3667C4.76016 9.49333 2.66683 7.59333 2.66683 5.66667C2.66683 4.33333 3.66683 3.33333 5.00016 3.33333C6.02683 3.33333 7.02683 4 7.38016 4.90667H8.62016C8.9735 4 9.9735 3.33333 11.0002 3.33333C12.3335 3.33333 13.3335 4.33333 13.3335 5.66667C13.3335 7.59333 11.2402 9.49333 8.06683 12.3667ZM11.0002 2C9.84016 2 8.72683 2.54 8.00016 3.38667C7.2735 2.54 6.16016 2 5.00016 2C2.94683 2 1.3335 3.60667 1.3335 5.66667C1.3335 8.18 3.60016 10.24 7.0335 13.3533L8.00016 14.2333L8.96683 13.3533C12.4002 10.24 14.6668 8.18 14.6668 5.66667C14.6668 3.60667 13.0535 2 11.0002 2Z" fill="#247AAE"/>
</svg>
